public/images/bull-down.svg

<svg height="245" viewBox="0 0 245 245" width="245" xmlns="http://www.w3.org/2000/svg" xmlns:xlink="http://www.w3.org/1999/xlink"><linearGradient id="a" x1="0%" x2="97.623274%" y1="48.321416%" y2="46.103281%"><stop offset="0" stop-color="#f34866"/><stop offset="1" stop-color="#f20a25"/></linearGradient><linearGradient id="b" x1="50%" x2="50%" y1="0%" y2="100%"><stop offset="0" stop-color="#d2d2d2"/><stop offset="1" stop-color="#a3a3a3"/></linearGradient><g fill="none" fill-rule="evenodd"><path d="m23.6596463 48.6023268c-1.9174063.7267017-2.7980825 1.7163465-2.6420288 2.9689346v28.1017797c.5981519 2.9322448 2.4375313 3.6653059 5.5181383 2.1991836 3.080607-1.4661224 11.2778308-5.5660796 24.5916714-12.2998716l39.8656141 41.8626369c1.4269866 1.654708 3.7293907 1.654708 6.9072122 0 3.1778215-1.654707 36.5021425-18.1712097 99.9729625-49.5495063l9.779286 14.0862955c2.462127 3.0178542 4.814796 2.7057467 7.058007-.9363224.987199-4.6065204 4.167833-17.7586948 9.541903-39.4565234.957603-3.3793705-.034243-5.2374617-2.975538-5.5742736s-16.915198-2.3383652-41.921708-6.0046598c-3.097104.3495413-4.321686 2.021376-3.673745 5.0155041 1.512352 2.4755797 3.715571 5.6931485 6.609659 9.6527062l-83.5198119 40.3781699-43.2454737-42.8345486c-1.7295548-1.6375858-4.0438219-1.6375858-6.9428013 0-4.3484691 2.4563787-22.0472373 11.3004428-24.9233468 12.3904952z" fill="url(#a)" transform="matrix(1 0 0 -1 0 136.67602)"/><path d="m44.3430003 157.869102c-7.4055826 1.879444-10.7706754-.705016-10.0952784-7.753378 1.0130956-10.572544 22.3486858-28.645361 32.1841271-32.010454 9.8354412-3.365093 23.4674664-7.500946 47.251315-2.088794 9.102377 2.185055 14.817448 2.368153 21.290489 1.184076 6.473041-1.184076 19.363251-3.876016 30.066387 5.183953s13.362091 12.942716 18.78232 15.459636c5.42023 2.51692 18.70962 6.466983 20.869769 10.325497 2.160148 3.858514 2.670398 11.603141 2.670398 15.004584 1.25386 1.774432 3.541908 4.330844 6.864143 7.669235 2.203904 2.421556 2.203904 5.056951 0 7.906184-2.203903 2.849233-3.72321 4.90078-4.55792 6.15464-1.53434 1.419904-4.259265 1.419904-8.174772 0-3.915508-1.419905-12.50943-4.880361-25.781767-10.381369l-5.643717-2.180343-14.695607 5.412152c-2.995083 6.54978-3.743854 12.318478-2.246312 17.306095 2.246312 7.481424 6.928092 11.921543 8.470286 14.145641s9.068047 11.594673-1.292454 11.594673c-6.907 0-13.982513 0-21.226539 0-9.682187-15.045162-15.429344-25.980854-17.241473-32.807076-5.509759 2.719539-22.8050834 6.366682-41.1929359 1.638454-1.5051706 5.139749-2.3941815 9.57179-2.667033 13.296122 7.4325088 3.910572 11.1487631 7.425553 11.1487631 10.544945 0 4.679088.4234134 7.327555-2.6010639 7.327555-2.0163182 0-15.5561214 0-40.6194096 0-2.0822872-.679176-2.602859-3.121694-1.5617154-7.327555 1.5617154-6.308792 4.9853725-20.286818 2.4926862-28.569294-1.6617908-5.521652-2.4926862-14.533378-2.4926862-27.035179z" fill="url(#b)"/><g fill="#8e8e8e"><path d="m46.0077396 148.665112c-5.0705193 4.258441-7.605779 7.452982-7.605779 9.583622 1.2535845.097608 3.233931-.028936 5.9410397-.379632z"/><path d="m84.9202155 178.633668-4.2767564 10.99884c2.667588.743668 4.604483 1.115502 5.8106849 1.115502-.8231464-3.260795-1.3344559-7.298909-1.5339285-12.114342z"/><path d="m119.971067 169.591006c-3.243487 10.482951-4.86523 17.311695-4.86523 20.486231 2.953499-.813212 5.197019-1.507607 6.730558-2.083183-.928008-2.326843-1.549784-5.04682-1.865328-8.159933-.315545-3.113112-.315545-6.527484 0-10.243115z"/><path d="m161.47912 160.95021 1.842331 13.802222-7.948564 3.002289z"/></g></g></svg>

<?xml version="1.0" encoding="UTF-8"?>
<svg width="245px" height="245px" viewBox="0 0 245 245" version="1.1" xmlns="http://www.w3.org/2000/svg" xmlns:xlink="http://www.w3.org/1999/xlink">
    <title>Bear</title>
    <defs>
        <linearGradient x1="0%" y1="48.3214156%" x2="97.6232735%" y2="46.1032807%" id="linearGradient-1">
            <stop stop-color="#F34866" offset="0%"></stop>
            <stop stop-color="#F20A25" offset="100%"></stop>
        </linearGradient>
        <linearGradient x1="50%" y1="0%" x2="50%" y2="100%" id="linearGradient-2">
            <stop stop-color="#D2D2D2" offset="0%"></stop>
            <stop stop-color="#A3A3A3" offset="100%"></stop>
        </linearGradient>
    </defs>
    <g id="Bear" stroke="none" stroke-width="1" fill="none" fill-rule="evenodd">
        <path d="M23.6596463,48.6023268 C21.74224,49.3290285 20.8615638,50.3186733 21.0176175,51.5712614 L21.0176175,79.6730411 C21.6157694,82.6052859 23.4551488,83.338347 26.5357558,81.8722247 C29.6163628,80.4061023 37.8135866,76.3061451 51.1274272,69.5723531 L90.9930413,111.43499 C92.4200279,113.089698 94.722432,113.089698 97.9002535,111.43499 C101.078075,109.780283 134.402396,93.2637803 197.873216,61.8854837 L207.652502,75.9717792 C210.114629,78.9896334 212.467298,78.6775259 214.710509,75.0354568 C215.697708,70.4289364 218.878342,57.276762 224.252412,35.5789334 C225.210015,32.1995629 224.218169,30.3414717 221.276874,30.0046598 C218.335579,29.6678479 204.361676,27.6662946 179.355166,24 C176.258062,24.3495413 175.03348,26.021376 175.681421,29.0155041 C177.193773,31.4910838 179.396992,34.7086526 182.29108,38.6682103 L98.7712681,79.0463802 L55.5257944,36.2118316 C53.7962396,34.5742458 51.4819725,34.5742458 48.5829931,36.2118316 C44.234524,38.6682103 26.5357558,47.5122744 23.6596463,48.6023268 Z" id="Path-6-Copy" fill="url(#linearGradient-1)" transform="translate(122.802603, 68.338010) scale(1, -1) translate(-122.802603, -68.338010) "></path>
        <path d="M44.3430003,157.869102 C36.9374177,159.748546 33.5723249,157.164086 34.2477219,150.115724 C35.2608175,139.54318 56.5964077,121.470363 66.431849,118.10527 C76.2672902,114.740177 89.8993154,110.604324 113.683164,116.016476 C122.785541,118.201531 128.500612,118.384629 134.973653,117.200552 C141.446694,116.016476 154.336904,113.324536 165.04004,122.384505 C175.743176,131.444474 178.402131,135.327221 183.82236,137.844141 C189.24259,140.361061 202.53198,144.311124 204.692129,148.169638 C206.852277,152.028152 207.362527,159.772779 207.362527,163.174222 C208.616387,164.948654 210.904435,167.505066 214.22667,170.843457 C216.430574,173.265013 216.430574,175.900408 214.22667,178.749641 C212.022767,181.598874 210.50346,183.650421 209.66875,184.904281 C208.13441,186.324185 205.409485,186.324185 201.493978,184.904281 C197.57847,183.484376 188.984548,180.02392 175.712211,174.522912 L170.068494,172.342569 L155.372887,177.754721 C152.377804,184.304501 151.629033,190.073199 153.126575,195.060816 C155.372887,202.54224 160.054667,206.982359 161.596861,209.206457 C163.139055,211.430555 170.664908,220.80113 160.304407,220.80113 C153.397407,220.80113 146.321894,220.80113 139.077868,220.80113 C129.395681,205.755968 123.648524,194.820276 121.836395,187.994054 C116.326636,190.713593 99.0313116,194.360736 80.6434591,189.632508 C79.1382885,194.772257 78.2492776,199.204298 77.9764261,202.92863 C85.4089349,206.839202 89.1251892,210.354183 89.1251892,213.473575 C89.1251892,218.152663 89.5486026,220.80113 86.5241253,220.80113 C84.5078071,220.80113 70.9680039,220.80113 45.9047157,220.80113 C43.8224285,220.121954 43.3018567,217.679436 44.3430003,213.473575 C45.9047157,207.164783 49.3283728,193.186757 46.8356865,184.904281 C45.1738957,179.382629 44.3430003,170.370903 44.3430003,157.869102 Z" id="Path-7" fill="url(#linearGradient-2)"></path>
        <path d="M46.0077396,148.665112 C40.9372203,152.923553 38.4019606,156.118094 38.4019606,158.248734 C39.6555451,158.346342 41.6358916,158.219798 44.3430003,157.869102 L46.0077396,148.665112 Z" id="Path-8" fill="#8E8E8E"></path>
        <path d="M84.9202155,178.633668 L80.6434591,189.632508 C83.3110471,190.376176 85.2479421,190.74801 86.454144,190.74801 C85.6309976,187.487215 85.1196881,183.449101 84.9202155,178.633668 Z" id="Path-9" fill="#8E8E8E"></path>
        <path d="M119.971067,169.591006 C116.72758,180.073957 115.105837,186.902701 115.105837,190.077237 C118.059336,189.264025 120.302856,188.56963 121.836395,187.994054 C120.908387,185.667211 120.286611,182.947234 119.971067,179.834121 C119.655522,176.721009 119.655522,173.306637 119.971067,169.591006 Z" id="Path-10" fill="#8E8E8E"></path>
        <polygon id="Path-11" fill="#8E8E8E" points="161.47912 160.95021 163.321451 174.752432 155.372887 177.754721"></polygon>
    </g>
</svg>
